X: 322
T: A Prune For A Kiss
R: slip jig
M: 9/8
K: Gmajor
ded cAF ~G3|BcB AFD DFA|ded cAF ~G3|ded fed cAG:|
Ade fed add|Ade fgf e^cA|def fed add|~f3 fed cAG:|

